X: 0583
T: DELAWARE HORNPIPE
B: Oliver Ditson "The Boston Collection of Instrumental Music" 1910 p.58 #3
F: http://conquest.imslp.info/files/imglnks/usimg/8/8f/IMSLP175643-PMLP309456-bostoncollection00bost_bw.pdf
N: The rhythms aren't right at the phrase boundaries.
M: 2/4
L: 1/16
K: G
|:\
BGBd  BGBd | gfge dBG2 | ecdB cABG | E2A2 A2c2 |\
BGBd  BGBd | gfge dBG2 | ecdB cABG | DGFA G2 :|
|: g2 |\
dgBg dgBg | dgba gfed | eaca eaca | e2ag fedc |\
dgBg dgBg dgba gfed | ecdB cABG | D2GA G4 :|

%%sep 1 1 500
%%sep 1 1 500
